X: 1
T: Rolling In The Barrel
R: reel
M: 4/4
L: 1/8
K: Ador
|: EE~E2 BE~E2 | B2AF DEFD | EGFE BE~E2 | B2Ac BEED |
EE~E2 BE~E2 | B2AF DEFD | EGFE BE~E2 | B2Ac BE~E2 ||
e2 (3gfe bege | d2df aafd | e2ge bege | dBAc BE~E2 |
e2 (3gfe be (3gfe | d2df a2fd | efge fdeB | (3dcB Ac BE~E2 :|


Tune 500	Setting 13416

